Hatter-kde-dark/actions/22/zone-in.svg

<svg xmlns="http://www.w3.org/2000/svg" viewBox="0 0 22 22">
  <defs id="defs3051">
    <style type="text/css" id="current-color-scheme">
      .ColorScheme-Text {
        color:#dedede;
      }
      </style>
  </defs>
 <path 
    style="fill:currentColor;fill-opacity:1;stroke:none" 
    d="M 5 3 L 5 14.050781 A 2.5 2.5 0 0 0 3 16.5 A 2.5 2.5 0 0 0 5.5 19 A 2.5 2.5 0 0 0 8 16.5 A 2.5 2.5 0 0 0 6 14.054688 L 6 3 L 5 3 z M 12.292969 6 L 9.5 8.7929688 L 8.7929688 9.5 L 9.5 10.207031 L 12.292969 13 L 13 12.292969 L 10.707031 10 L 17 10 L 17 9 L 15 9 L 10.707031 9 L 13 6.7070312 L 12.292969 6 z M 5.5 15 A 1.5 1.5 0 0 1 7 16.5 A 1.5 1.5 0 0 1 5.5 18 A 1.5 1.5 0 0 1 4 16.5 A 1.5 1.5 0 0 1 5.5 15 z "
    class="ColorScheme-Text"
    />  
</svg>

<?xml version="1.0" encoding="UTF-8"?>
<svg viewBox="0 0 22 22" xmlns="http://www.w3.org/2000/svg">
 <defs id="defs3051">
  <style id="current-color-scheme" type="text/css">.ColorScheme-Text {
        color:#dedede;
      }</style>
 </defs>
 <path class="ColorScheme-Text" d="m5 3v11.051a2.5 2.5 0 0 0-2 2.4492 2.5 2.5 0 0 0 2.5 2.5 2.5 2.5 0 0 0 2.5-2.5 2.5 2.5 0 0 0-2-2.4453v-11.055h-1zm7.293 3-3.5 3.5 3.5 3.5 0.70703-0.70703-2.293-2.293h6.293v-1h-2-4.293l2.293-2.293-0.70703-0.70703zm-6.793 9a1.5 1.5 0 0 1 1.5 1.5 1.5 1.5 0 0 1-1.5 1.5 1.5 1.5 0 0 1-1.5-1.5 1.5 1.5 0 0 1 1.5-1.5z" fill="currentColor"/>
</svg>
